X:308
T:Munster Bacon
T:Kitty Got a Clinking Coming to the Fair
R:jig
D:Brian Finnegan: When the Party's Over
Z:id:hn-jig-308
M:6/8
K:D
~A3 DFA|dfe d2A|~B3 dAF|~G3 EFG|
~A3 dcA|~B3 efg|faf gfe|1 dfe d2B:|2 dfe d2a||
|:afd dfa|bag a2g|~f3 fed|cAA A2G|
Fdd cee|dff efg|faf gfe|1 dfe d2a:|2 dfe d2B||

